symbols/web/my_location/materialsymbolsoutlined/my_location_wght700_24px.svg

<svg xmlns="http://www.w3.org/2000/svg" height="24" width="24"><path d="M10.625 23.75v-2q-3.2-.375-5.612-2.812Q2.6 16.5 2.25 13.375h-2v-2.75h2q.375-3.2 2.812-5.613Q7.5 2.6 10.625 2.25v-2h2.75v2q3.125.35 5.563 2.762 2.437 2.413 2.812 5.613h2v2.75h-2q-.35 3.125-2.762 5.563-2.413 2.437-5.613 2.812v2ZM12 18.7q2.8 0 4.75-1.95Q18.7 14.8 18.7 12t-1.95-4.75Q14.8 5.3 12 5.3T7.25 7.25Q5.3 9.2 5.3 12t1.95 4.75Q9.2 18.7 12 18.7Zm0-2.7q-1.65 0-2.825-1.175Q8 13.65 8 12q0-1.65 1.175-2.825Q10.35 8 12 8q1.65 0 2.825 1.175Q16 10.35 16 12q0 1.65-1.175 2.825Q13.65 16 12 16Zm0-2.775q.5 0 .863-.362.362-.363.362-.863t-.362-.863q-.363-.362-.863-.362t-.863.362q-.362.363-.362.863t.362.863q.363.362.863.362ZM12 12Z"/></svg>

<svg xmlns="http://www.w3.org/2000/svg" height="24" width="24"><path d="M10.625 23.75V21.75Q7.425 21.375 5.013 18.938Q2.6 16.5 2.25 13.375H0.25V10.625H2.25Q2.625 7.425 5.062 5.012Q7.5 2.6 10.625 2.25V0.25H13.375V2.25Q16.5 2.6 18.938 5.012Q21.375 7.425 21.75 10.625H23.75V13.375H21.75Q21.4 16.5 18.988 18.938Q16.575 21.375 13.375 21.75V23.75ZM12 18.7Q14.8 18.7 16.75 16.75Q18.7 14.8 18.7 12Q18.7 9.2 16.75 7.25Q14.8 5.3 12 5.3Q9.2 5.3 7.25 7.25Q5.3 9.2 5.3 12Q5.3 14.8 7.25 16.75Q9.2 18.7 12 18.7ZM12 16Q10.35 16 9.175 14.825Q8 13.65 8 12Q8 10.35 9.175 9.175Q10.35 8 12 8Q13.65 8 14.825 9.175Q16 10.35 16 12Q16 13.65 14.825 14.825Q13.65 16 12 16ZM12 13.225Q12.5 13.225 12.863 12.863Q13.225 12.5 13.225 12Q13.225 11.5 12.863 11.137Q12.5 10.775 12 10.775Q11.5 10.775 11.137 11.137Q10.775 11.5 10.775 12Q10.775 12.5 11.137 12.863Q11.5 13.225 12 13.225ZM12 12Q12 12 12 12Q12 12 12 12Q12 12 12 12Q12 12 12 12Q12 12 12 12Q12 12 12 12Q12 12 12 12Q12 12 12 12Z"/></svg>
